**kern	**kern	**dynam
*part1	*part1	*part1
*staff2	*staff1	*
*I"Piano	*	*
*clefF4	*clefF4	*
*k[b-e-a-d-]	*k[b-e-a-d-]	*
=1	=1	=1
*	*^	*
1AAA-	4B-)	1c	.
.	4A-	.	.
.	4G	.	.
.	8A-L	.	.
.	8FJ	.	.
*	*v	*v	*
=	=	=
1BBB-	1D-) 1G	p
=	=	=
*^	*	*
4rBB	1CC	2E- 2A-	.
2.AA-	.	.	.
.	.	[4E-	.
.	.	4E-] 4G-X	.
=	=	=	=
*	*	*^	*
1DD-	[1AA-	4E-	1F	.
.	.	[2.D-	.	.
=	=	=	=	=
2AA-]	1EE-	4D-]	1E-	.
.	.	2C	.	.
4FF	.	.	.	.
[4GG	.	[4BB-	.	.
*	*	*v	*v	*
=	=	=	=
4GG;]	(1AAA-	4BB-;]	.
4AA-	.	4AA-	.
2rGG	.	4BB-	.
.	.	4E-	.
=||	=||	=||	=||
2.AAA-;)	(2GG	(2BB-	.
.	4AA-;)	4AA-;)	.
4r	4rGGyy	4r	.
*v	*v	*	*
==	==	==
*-	*-	*-
!!!system-decoration: {(s1,s2)}
